src/assets/svg/bg/key-facts-circles-soft.svg

<svg xmlns="http://www.w3.org/2000/svg" viewBox="0 0 430 429" fill="none">
<path d="M425.245 210.544C427.27 326.542 334.653 422.226 218.376 424.255C102.1 426.285 6.19845 333.892 4.17369 217.894C2.14912 101.896 94.7673 6.21317 211.044 4.18356C327.32 2.15414 423.22 94.5461 425.245 210.544Z" stroke="#747474" stroke-opacity="0.45" stroke-width="1"/>
<path d="M415.489 201.386C417.425 312.299 329.082 403.781 218.169 405.718C107.257 407.654 15.7741 319.31 13.8381 208.397C11.9023 97.4848 100.246 6.0029 211.159 4.06692C322.071 2.13116 413.553 90.4741 415.489 201.386Z" stroke="#747474" stroke-opacity="0.45" stroke-width="1"/>
<path d="M214.84 3.85693C320.05 3.85693 405.34 89.1468 405.34 194.357C405.34 299.567 320.05 384.857 214.84 384.857C109.63 384.857 24.3398 299.567 24.3398 194.357C24.3398 89.1468 109.63 3.85693 214.84 3.85693Z" stroke="#747474" stroke-opacity="0.45" stroke-width="1"/>
</svg>

<svg xmlns="http://www.w3.org/2000/svg" fill="none" viewBox="0 0 430 429"><path stroke="#747474" stroke-opacity=".45" d="M425.245 210.544c2.025 115.998-90.592 211.682-206.869 213.711C102.1 426.285 6.198 333.892 4.174 217.894S94.767 6.214 211.044 4.184c116.276-2.03 212.176 90.362 214.201 206.36Z"/><path stroke="#747474" stroke-opacity=".45" d="M415.489 201.386c1.936 110.913-86.407 202.395-197.32 204.332S15.774 319.31 13.839 208.397C11.901 97.485 100.245 6.003 211.158 4.067s202.394 86.407 204.33 197.319Z"/><path stroke="#747474" stroke-opacity=".45" d="M214.84 3.857c105.21 0 190.5 85.29 190.5 190.5s-85.29 190.5-190.5 190.5-190.5-85.29-190.5-190.5 85.29-190.5 190.5-190.5Z"/></svg>
